X:1
T:Rakish Paddy
R:reel
M:4/4
L:1/8
K:Dmix
cAAB cAAB|cAAG EG~G2|Add^c de=fe|dcAG FGAB|
cAAB cAAB|cAAG EFGE|D2 (3EFG ABcA|dcAG FGAB|
c2AB cded|cABG EG~G2|Add^c d2 (3g^fe|dcAG FGAB|
c2AB cded|cABG EFGE|FD (3EFG ABcA|dcAG FDD2|]
eg~g2 ag~g2|eg~g2 eABd|ea~a2 bgag|ea~a2 eABd|
efge afge|fde^c defg|afge fde^c|1 dcAG FDD2:|2 dcAG FGAB|]
